!!!SOCIAL_FUNCTION:	game songs
!!!PDT:	1943
!!!OTL: No_66_Song_of_Pleasure.krn
!!!REG: British Columbia
**kern
*staff1
=1-
*clefF4
*k[b-e-a-d-]
*M3/4
2A-\
8.B-\L
16F\Jk
=2
4A-\
2E-\
=3||
*M2/4
12F\L
12F\
12C\J
8E-\
8r
=4
8.A-\L
16E-\Jk
16B-\LK
8.A-\J
=5
8.E-/L
16C/Jk
8AA-/
8r
=6
8.E-\L
16E-\Jk
12E-\L
12F\
12F\J
=7
2E-\
=8
12C/L
12C/
12BB-/J
8AA-/
8r
=9
8.C/L
16BB-/Jk
8.C/L
16BB-/Jk
=10
2AA-/
=11
8.AA-/L
16AA-/Jk
12AA-/L
12BB-/
12BB-/J
=12
2AA-/
==
*-
